!!!COM: des Prez, Josquin
!!!CDT: ~1450-1521/08/27
!!!OTL: Ce povre mendiant / Pauper sum ego
!!!AGN: Chanson; Motet-Chanson
!!!SCT: NJE 27.5
!!!SCA: New Josquin Edition 27.5
!!!voices: 3
**kern	**text	**kern	**text	**kern	**text
*staff3	*	*staff2	*	*staff1	*
*Ivox	*	*Ivox	*	*Ivox	*
*I"Bassus	*	*I"Tenor	*	*I"Discantus	*
*I'B	*	*I'T	*	*I'D	*
*clefF4	*	*clefGv2	*	*clefG2	*
*k[]	*	*k[]	*	*k[]	*
*M2/1	*	*M2/1	*	*M2/1	*
*met(C|)	*	*met(C|)	*	*met(C|)	*
=1-	=1-	=1-	=1-	=1-	=1-
!LO:TX:X=-40:Z=12:t=Bassus&colon; sequential c.f. statements (on a, g, f, e, d, and a)	!	!	!	!LO:TX:X=-40:Z=10:t=`Ce povre' text unique to Brussels 228	!
!	!	!LO:TX:X=-40:Z=10:t=Florence 2439 gives the incipit `Fortune destrange plummaige'	!	!	!
0r	.	0A	Ce	0e	Ce
=2	=2	=2	=2	=2	=2
0r	.	1.A	po-	1.e	po-
.	.	4G/	.	2f/	.
.	.	4F/	.	.	.
=3	=3	=3	=3	=3	=3
0r	.	1E	-vre,	1g	-vre,
.	.	[1F	ce	[1a	ce
=4	=4	=4	=4	=4	=4
0A	Pau-	2F/]	.	2a/]	.
.	.	2E/	.	2g/	.
.	.	2D/	po-	2f/	po-
.	.	4C/	.	4e/	.
.	.	4BB/	.	4d/	.
=5	=5	=5	=5	=5	=5
0A	-per	1AA	-vre	1c	-vre
.	.	4AA/	men-	1cc	men-
.	.	4BB/	.	.	.
.	.	4C/	.	.	.
.	.	4D/	.	.	.
=6	=6	=6	=6	=6	=6
1G	sum	1E	.	2.b\	.
.	.	.	.	4a/	.
1A	.	1AA	-di-	1cc	.
=7	=7	=7	=7	=7	=7
0F	e-	0A	-ant,	4cc\	-di-
.	.	.	.	4b\	.
.	.	.	.	4a/	.
.	.	.	.	4g/	.
.	.	.	.	1a	.
=8	=8	=8	=8	=8	=8
0E	-go,	1B	men-	0g	-ant,
.	.	[1c	.	.	.
=9	=9	=9	=9	=9	=9
0r	.	2c\]	.	1r	.
.	.	4B\	.	.	.
.	.	4A/	.	.	.
.	.	1B	-di-	1g	ce
=10	=10	=10	=10	=10	=10
0r	.	1.A	-ant,	1a	po-
.	.	.	.	1cc	.
.	.	4G/	.	.	.
.	.	4F/	.	.	.
=11	=11	=11	=11	=11	=11
0G	Pau-	0E	.	1b	-vre
.	.	.	.	4b\	men-
.	.	.	.	4a/	.
.	.	.	.	4g/	.
.	.	.	.	4f/	.
=12	=12	=12	=12	=12	=12
0G	-per	1r	.	1e	.
.	.	1B	men-	1d	.
=13	=13	=13	=13	=13	=13
1F	sum	1A	-di-	1d	-di-
1G	.	[1B	.	[1e	.
=14	=14	=14	=14	=14	=14
0E	e-	2B\]	.	2e/]	.
.	.	2.G/	.	2f/	.
.	.	.	.	[1g	-ant
.	.	4A/	.	.	.
.	.	4B\	.	.	.
.	.	4c\	.	.	.
=15	=15	=15	=15	=15	=15
0D	-go,	2d\	-ant	2g/]	.
.	.	1c	pour	4f/	.
.	.	.	.	4e/	.
.	.	.	.	1f	pour
.	.	2B\	.	.	.
=16	=16	=16	=16	=16	=16
0r	.	2.c\	Dieu,	0e	Dieu
.	.	4B\	.	.	.
.	.	2G/	.	.	.
.	.	[2A/	pour	.	.
=17	=17	=17	=17	=17	=17
0r	.	2A/]	.	1r	.
.	.	4G/	.	.	.
.	.	4F/	.	.	.
.	.	1E	Dieu	1b	Qui
=18	=18	=18	=18	=18	=18
0F	Pau-	1r	Qui	1.a	n'a
.	.	1D	n'a	.	.
.	.	.	.	4b\	.
.	.	.	.	4cc\	.
=19	=19	=19	=19	=19	=19
0F	-per	4D/	be-	1dd	.
.	.	4E/	.	.	.
.	.	4F/	.	.	.
.	.	4G/	.	.	.
.	.	1A	.	[1cc	be-
=20	=20	=20	=20	=20	=20
1E	sum	2G/	-ne-	2cc\]	.
.	.	1c	-fi-	4b\	.
.	.	.	.	4a/	.
1F	.	.	.	2a/	.
.	.	2A/	.	2cc\	-ne-
=21	=21	=21	=21	=21	=21
0D	e-	2B\	.	2b\	-fi-
.	.	2c\	.	2.a/	.
.	.	1d	.	.	.
.	.	.	.	4g/	.
.	.	.	.	2f/	.
=22	=22	=22	=22	=22	=22
0C	-go,	1G	-ce	1e	-ce
.	.	2A/	ne of-	2r	.
.	.	[2G/	.	[2e/	ne of-
=23	=23	=23	=23	=23	=23
0r	.	2G/]	.	4e/]	.
.	.	.	.	4f/	.
.	.	4F/	.	2g/	.
.	.	4E/	.	.	.
.	.	2.A/	-fi-	2e/	-fi-
.	.	.	.	2g/	.
.	.	4G/	.	.	.
=24	=24	=24	=24	=24	=24
0r	.	2A/	.	2f/	.
.	.	2G/	.	1e	.
.	.	1A	.	.	.
.	.	.	.	4d/	.
.	.	.	.	4c/	.
=25	=25	=25	=25	=25	=25
0E	Pau-	0G	-ce,	0B	-ce,
=26	=26	=26	=26	=26	=26
0E	-per	1r	.	1r	.
.	.	1G	Qui	[1b	Qui
=27	=27	=27	=27	=27	=27
1D	sum	1F	.	1b]	.
1E	.	[1G	ne	1b	ne
=28	=28	=28	=28	=28	=28
0C	e-	2G/]	.	0cc	luy
.	.	2F/	.	.	.
.	.	1E	luy	.	.
=29	=29	=29	=29	=29	=29
0BB	-go,	1D	vault,	1dd	vault,
.	.	1d	qui	4dd\	qui
.	.	.	.	4cc\	.
.	.	.	.	4b\	.
.	.	.	.	4a/	.
=30	=30	=30	=30	=30	=30
0r	.	1e	.	2g/	.
.	.	.	.	2cc\	ne
.	.	2d\	ne	2b\	luy
.	.	2c\	.	[2a/	.
=31	=31	=31	=31	=31	=31
0r	.	1B	luy	2a/]	.
.	.	.	.	2g#i/	.
.	.	1A	vault	1a	vault
=32	=32	=32	=32	=32	=32
0D	Pau-	1r	.	1r	.
.	.	[1F	ou	[1a	ou
=33	=33	=33	=33	=33	=33
0D	-per	2F/]	.	2a/]	.
.	.	2G/	.	2g/	.
.	.	2A/	soit	1f	soit
.	.	2B\	pro-	.	.
=34	=34	=34	=34	=34	=34
1C	sum	1.c	-pi-	1e	pro-
1D	.	.	.	1f	-pi-
.	.	4B\	.	.	.
.	.	4A/	.	.	.
=35	=35	=35	=35	=35	=35
0BB	e-	2G/	.	2g/	.
.	.	1A	.	4f/	.
.	.	.	.	4e/	.
.	.	.	.	1d	.
.	.	2G#i/	.	.	.
=36	=36	=36	=36	=36	=36
0AA	-go,	1.A	-ce,	1c	-ce,
.	.	.	.	2r	.
.	.	4G/	.	[2cc\	Au-
.	.	4F/	.	.	.
=37	=37	=37	=37	=37	=37
0r	.	2E/	.	2cc\]	.
.	.	2G/	pro-	2b\	.
.	.	2F/	-pi-	2a/	.
.	.	4E/	.	[2cc\	-tant
.	.	4D/	.	.	.
=38	=38	=38	=38	=38	=38
0r	.	2C/	-ce,	2cc\]	.
.	.	2c\	Au-	4b\	.
.	.	.	.	4a/	.
.	.	2B\	-tant	2g/	.
.	.	2A/	.	[2cc\	que
=39	=39	=39	=39	=39	=39
0A	Pau-	1.e	que	2cc\]	.
.	.	.	.	4b\	.
.	.	.	.	4a/	.
.	.	.	.	2.cc\	por-
.	.	4d\	.	.	.
.	.	4e\	.	4b\	.
=40	=40	=40	=40	=40	=40
0A	-per	2f\	por-	2a/	.
.	.	2e\	.	4g/	.
.	.	.	.	4f/	.
.	.	1c	-te,	2e/	-te,
.	.	.	.	2cc\	au-
=41	=41	=41	=41	=41	=41
1G	sum	2d\	au-	2b\	-tant
.	.	2.e\	-tant	4a/	.
.	.	.	.	4b\	.
1A	.	.	.	2cc\	.
.	.	4d\	.	.	.
.	.	4c\	que	2a/	que
.	.	4B\	.	.	.
=42	=42	=42	=42	=42	=42
0F	e-	2.A/	por-	2dd\	por-
.	.	.	.	2cc\	.
.	.	4B\	.	.	.
.	.	2c\	.	2a/	.
.	.	4B\	.	[2cc\	.
.	.	4A/	.	.	.
=43	=43	=43	=43	=43	=43
[0E	.	2G/	.	2cc\]	.
.	.	2c\	.	4b\	.
.	.	.	.	4a/	.
.	.	2B\	-te	2g/	-te
.	.	[2e\	sur	2cc\	sur
=44	=44	=44	=44	=44	=44
0E]	.	4e\]	.	2b\	.
.	.	4d\	.	.	.
.	.	2c\	.	1a	.
.	.	1B	le	.	.
.	.	.	.	2g#i/	le
=45	=45	=45	=45	=45	=45
0AAl	-go.	0Al	lieu.	0al	lieu.
==	==	==	==	==	==
*-	*-	*-	*-	*-	*-
!!!RDF**kern: l=long note in original notation
!!!RDF**kern: i=editorial accidental
!!!ENC: Jesse Rodin 2011/05/30/
!!!END: 2011/05/30/
!!!EED: Jesse Rodin
!!!EEV: 2011/08/09/
!!attribution-level@Jos: 2 (provisionally attributable [parentheses checkmark])
!!!ONB: Translated from MusicXML and edited on 2011/08/09/ by Craig Sapp
!!muse2ps:  C^@{COM}\n@{SCT}^i2I150v90,90,120c105z18l2700t130
